!!!COM: taylor-swift
!!!OTL: starlight
!!!RNB: hooktheoryid: KyvmrdQaxOW
**kern	**text
*clefG2	*
*k[f#c#g#d#]	*
*M4/4	*
=1	=1
4a	A
4g#	.
8f#	.
4e	.
[8B	.
=2	=2
2B	B
8B]	.
8c#	.
8B	.
[8a	.
=3	=3
4a]	G#m
4g#	.
8f#	.
4e	.
[8b	.
=4	=4
8b]	C#m
2b	.
8cc#	.
8b	.
[8aa	.
=5	=5
8aa]	A
8aa	.
8gg#	.
8gg#	.
8ff#	.
8ff#	.
8ee	.
[8ee	.
=6	=6
8ee]	B
8dd#	.
8b	.
4ee	.
8dd#	.
8b	.
[8b	.
=7	=7
8b]	G#m
8b	.
8b	.
8dd#	.
8dd#	.
8ee	.
8ee	.
[8bb	.
=8	=8
8bb]	C#m
4bb	.
2r	.
8r	.
*-	*-